src/categories-icons-sprite/categories/svg-cat-child-underwear.svg

<svg width="35" height="35" viewBox="0 0 35 35" fill="none" xmlns="http://www.w3.org/2000/svg">
<path class="p-2FC0F0" d="M18.8501 1.10951V14.5288C18.8501 15.8065 18.3882 17.0429 17.5513 18.009L14.8463 21.13C13.0292 23.2267 11.9069 24.5306 11.18 25.3662C9.93725 26.7942 9.85073 26.8551 9.42482 27.171C7.27042 28.7716 4.22629 28.7425 2.08819 26.9326C-0.420016 24.8081 -0.710544 21.0427 1.44385 18.5569L6.21646 13.0511C6.74464 12.4406 7.03571 11.6606 7.03571 10.8529V1.10951C7.03571 0.496941 7.53238 0 8.14495 0H17.7409C18.3527 0 18.8501 0.496941 18.8501 1.10951Z" fill="#58ADE5"/>
<path class="p-0FA9DD" d="M18.8498 1.10951V14.5288C18.8498 15.8065 18.3879 17.0429 17.551 18.009L14.846 21.13C13.0289 23.2267 11.9065 24.5306 11.1797 25.3662V0H17.7406C18.3524 0 18.8498 0.496941 18.8498 1.10951Z" fill="#4D98CB"/>
<path class="p-FF8E8E" d="M18.8496 1.10924V5.03617H7.03516V1.10924C7.03516 0.496674 7.53183 0 8.1444 0H17.7404C18.3529 0.000267029 18.8496 0.496674 18.8496 1.10924Z" fill="#5FBEFF"/>
<path class="p-FF6C6C" d="M11.1797 0.000488281H14.7053V5.03666H11.1797V0.000488281Z" fill="#A1D1FD"/>
<path class="p-BEEBFA" d="M18.8501 9.91675V14.5286C18.8501 15.8066 18.3889 17.0432 17.5518 18.0091L14.8468 21.1298C11.0958 17.185 13.42 10.5902 18.8501 9.91675Z" fill="#B9DFFC"/>
<path class="p-2FC0F0" d="M34.7807 7.77696V21.1957C34.7807 22.474 34.3193 23.7106 33.4816 24.6759L30.7766 27.7969L27.1105 31.984C26.2261 33.004 25.9933 33.3645 25.3559 33.8387C23.2018 35.4385 20.1574 35.4094 18.0195 33.5995C15.5111 31.475 15.22 27.7096 17.3736 25.2239L22.147 19.7188C22.6749 19.1083 22.966 18.3276 22.966 17.5203V7.77696C22.966 7.16386 23.4629 6.66772 24.0755 6.66772H33.6712C34.2837 6.66772 34.7807 7.16386 34.7807 7.77696Z" fill="#58ADE5"/>
<path class="p-0FA9DD" d="M34.7805 7.77696V21.1957C34.7805 22.474 34.3191 23.7106 33.4814 24.6759L30.7764 27.7969L27.1104 31.984V6.66772H33.671C34.2836 6.66772 34.7805 7.16386 34.7805 7.77696Z" fill="#4D98CB"/>
<path class="p-FF8E8E" d="M34.7803 7.77674V11.7034H22.9658V7.77674C22.9658 7.16391 23.4625 6.66724 24.0751 6.66724H33.671C34.2836 6.6675 34.7803 7.16418 34.7803 7.77674Z" fill="#5FBEFF"/>
<path class="p-FF6C6C" d="M27.1104 6.66772H30.6359V11.7039H27.1104V6.66772Z" fill="#A1D1FD"/>
<path class="p-BEEBFA" d="M34.7807 16.584V21.1958C34.7807 22.4738 34.3196 23.7105 33.4824 24.6763L30.7774 27.7971C27.0265 23.8523 29.3507 17.2574 34.7807 16.584Z" fill="#B9DFFC"/>
</svg>

<svg width="35" height="35" fill="none" xmlns="http://www.w3.org/2000/svg"><path class="p-2FC0F0" d="M18.85 1.11v13.419a5.318 5.318 0 01-1.299 3.48l-2.705 3.121c-1.817 2.097-2.94 3.4-3.666 4.236-1.243 1.428-1.33 1.49-1.755 1.805a5.907 5.907 0 01-7.981-8.614l4.772-5.506c.529-.61.82-1.39.82-2.198V1.11C7.036.497 7.532 0 8.145 0h9.596c.612 0 1.11.497 1.11 1.11z" fill="#58ADE5"/><path class="p-0FA9DD" d="M18.85 1.11v13.419a5.318 5.318 0 01-1.299 3.48l-2.705 3.121c-1.817 2.097-2.94 3.4-3.666 4.236V0h6.56c.612 0 1.11.497 1.11 1.11z" fill="#4D98CB"/><path class="p-FF8E8E" d="M18.85 1.11v3.926H7.035V1.11C7.035.497 7.532 0 8.145 0h9.595c.613 0 1.11.497 1.11 1.11z" fill="#5FBEFF"/><path class="p-FF6C6C" d="M11.18 0h3.525v5.037H11.18V0z" fill="#A1D1FD"/><path class="p-BEEBFA" d="M18.85 9.917v4.612a5.316 5.316 0 01-1.298 3.48l-2.705 3.12C11.096 17.186 13.42 10.59 18.85 9.918z" fill="#B9DFFC"/><path class="p-2FC0F0" d="M34.78 7.777v13.419a5.311 5.311 0 01-1.298 3.48l-2.705 3.12-3.667 4.188c-.884 1.02-1.117 1.38-1.754 1.855a5.908 5.908 0 01-7.982-8.615l4.773-5.505c.528-.61.819-1.391.819-2.199V7.777c0-.613.497-1.11 1.11-1.11h9.595c.613 0 1.11.497 1.11 1.11z" fill="#58ADE5"/><path class="p-0FA9DD" d="M34.78 7.777v13.419a5.311 5.311 0 01-1.299 3.48l-2.705 3.12-3.666 4.188V6.668h6.561c.613 0 1.11.496 1.11 1.109z" fill="#4D98CB"/><path class="p-FF8E8E" d="M34.78 7.777v3.926H22.966V7.777c0-.613.496-1.11 1.11-1.11h9.595c.613 0 1.11.497 1.11 1.11z" fill="#5FBEFF"/><path class="p-FF6C6C" d="M27.11 6.668h3.526v5.036H27.11V6.668z" fill="#A1D1FD"/><path class="p-BEEBFA" d="M34.78 16.584v4.612a5.316 5.316 0 01-1.298 3.48l-2.705 3.121c-3.75-3.945-1.426-10.54 4.004-11.213z" fill="#B9DFFC"/></svg>
